images/svg/clock.svg

<svg width="240" height="240" viewBox="0 0 240 240" fill="none" xmlns="http://www.w3.org/2000/svg">
<path d="M220 57.1999L174 18.5999L161.1 33.8999L207.1 72.4999L220 57.1999ZM78.8 33.8999L66 18.5999L20 57.0999L32.9 72.3998L78.8 33.8999ZM125 79.9999H110V140L157.5 168.5L165 156.2L125 132.5V79.9999ZM120 39.9999C70.3 39.9999 30 80.2999 30 130C30 179.7 70.2 220 120 220C169.7 220 210 179.7 210 130C210 80.2999 169.7 39.9999 120 39.9999ZM120 200C81.3 200 50 168.7 50 130C50 91.2999 81.3 59.9999 120 59.9999C158.7 59.9999 190 91.2999 190 130C190 168.7 158.7 200 120 200Z" fill="black"/>
</svg>

<?xml version="1.0" encoding="utf-8"?>
<!-- Generator: Adobe Illustrator 25.2.1, SVG Export Plug-In . SVG Version: 6.00 Build 0)  -->
<svg version="1.1" id="Camada_1" xmlns="http://www.w3.org/2000/svg" xmlns:xlink="http://www.w3.org/1999/xlink" x="0px" y="0px"
	 viewBox="0 0 240 240" style="enable-background:new 0 0 240 240;" xml:space="preserve">
<style type="text/css">
	.st0{fill:#1C8D87;}
</style>
<path class="st0" d="M220,57.2l-46-38.6l-12.9,15.3l46,38.6L220,57.2z M78.8,33.9L66,18.6L20,57.1l12.9,15.3L78.8,33.9z M125,80h-15
	v60l47.5,28.5l7.5-12.3l-40-23.7V80z M120,40c-49.7,0-90,40.3-90,90c0,49.7,40.2,90,90,90c49.7,0,90-40.3,90-90
	C210,80.3,169.7,40,120,40z M120,200c-38.7,0-70-31.3-70-70c0-38.7,31.3-70,70-70s70,31.3,70,70C190,168.7,158.7,200,120,200z"/>
</svg>
